icons/stack-add-16.svg

<svg width="16" height="16" viewBox="0 0 16 16" xmlns="http://www.w3.org/2000/svg">
<path d="M7.12208 0.392354C7.66506 0.0774267 8.33496 0.0774267 8.87794 0.392354L13.8809 3.29372C14.711 3.7754 14.7108 4.97404 13.8809 5.45583L8.87794 8.35817C8.33508 8.67292 7.66494 8.67292 7.12208 8.35817L2.11915 5.45583C1.28917 4.97404 1.28904 3.7754 2.11915 3.29372L7.12208 0.392354ZM8.12501 1.69021C8.04751 1.64532 7.95251 1.64532 7.87501 1.69021L3.24415 4.37478L7.87501 7.06032C7.95239 7.10503 8.04762 7.10503 8.12501 7.06032L12.7549 4.37478L8.12501 1.69021Z" fill="black"/>
<path d="M1.60157 7.78902C1.80937 7.43074 2.26769 7.30881 2.62598 7.51656L7.87501 10.5605C8.23282 10.7684 8.35484 11.2268 8.14747 11.5849C7.93965 11.9432 7.48039 12.0652 7.12208 11.8574L1.87403 8.81344C1.51575 8.60563 1.39382 8.14732 1.60157 7.78902Z" fill="black"/>
<path d="M1.60157 11.289C1.80937 10.9307 2.26769 10.8088 2.62598 11.0166L7.87501 14.0605C8.23282 14.2684 8.35484 14.7268 8.14747 15.0849C7.93965 15.4432 7.48039 15.5652 7.12208 15.3574L1.87403 12.3134C1.51575 12.1056 1.39382 11.6473 1.60157 11.289Z" fill="black"/>
<path d="M11.75 15.25V13.25H9.75001C9.33579 13.25 9.00001 12.9142 9.00001 12.5C9.00001 12.0858 9.33579 11.75 9.75001 11.75H11.75V9.75C11.75 9.33578 12.0858 9 12.5 9C12.9142 9 13.25 9.33578 13.25 9.75V11.75H15.25C15.6642 11.75 16 12.0858 16 12.5C16 12.9142 15.6642 13.25 15.25 13.25H13.25V15.25C13.25 15.6642 12.9142 16 12.5 16C12.0858 16 11.75 15.6642 11.75 15.25Z" fill="black"/>
</svg>

<svg xmlns="http://www.w3.org/2000/svg" width="16" height="16" viewBox="0 0 16 16"><path d="M7.122.392a1.75 1.75 0 0 1 1.756 0l5.003 2.902c.83.481.83 1.68 0 2.162L8.878 8.358a1.75 1.75 0 0 1-1.756 0L2.119 5.456a1.25 1.25 0 0 1 0-2.162zM8.125 1.69a.25.25 0 0 0-.25 0L3.244 4.375 7.875 7.06a.25.25 0 0 0 .25 0l4.63-2.685zM1.602 7.789a.75.75 0 0 1 1.024-.272l5.249 3.043a.75.75 0 0 1-.753 1.297L1.874 8.813a.75.75 0 0 1-.272-1.024m0 3.5a.75.75 0 0 1 1.024-.272l5.249 3.043a.75.75 0 0 1-.753 1.297l-5.248-3.044a.75.75 0 0 1-.272-1.024M11.75 15.25v-2h-2a.75.75 0 0 1 0-1.5h2v-2a.75.75 0 0 1 1.5 0v2h2a.75.75 0 0 1 0 1.5h-2v2a.75.75 0 0 1-1.5 0"/></svg>
